X: 47
T:Reel, A. GS.047
M:2/4
L:1/16
Q:100
S:George Spencer m/s, Leeds,1831
R:Reel
O:England
A:Leeds
H:1831
Z:vmp.Cherri Graebe
K:D major
dfaf dfaf | edef e2e2 | dfaf dfaf | BABc d2d2 :||:! A2AF G2GE | D2DF E2E
2 | A2AF d2df | edef d2d2 :||
